svgs/fxxxs_given.svg

<svg xmlns="http://www.w3.org/2000/svg" viewBox="0 0 192 192"><path fill="#00000000" stroke="#000" stroke-linecap="round" stroke-linejoin="round" stroke-width="12" d="M30 146V96m58-50H30v50m0 0h50"/><path fill="#00000000" stroke="#000" stroke-linecap="round" stroke-width="12" d="M108 86v33c0 14.91 12.09 27 27 27h0c14.91 0 27-12.09 27-27V86"/></svg>

<svg
    xmlns="http://www.w3.org/2000/svg"
    viewBox="0 0 192 192"
    id="vector">
    <path
        id="path"
        d="M 30 146 L 30 96 M 88 46 L 30 46 L 30 96 M 30 96 L 80 96"
        fill="#00000000"
        stroke="#000000"
        stroke-width="12"
        stroke-linecap="round"
        stroke-linejoin="round"/>
    <path
        id="path_1"
        d="M 108 86 L 108 119 C 108 133.91 120.09 146 135 146 L 135 146 C 149.91 146 162 133.91 162 119 L 162 86"
        fill="#00000000"
        stroke="#000000"
        stroke-width="12"
        stroke-linecap="round"/>
</svg>
